Origami/64x64/apps/7kaa.svg

<svg width="64" height="64" version="1" xmlns="http://www.w3.org/2000/svg">
 <rect x="4" y="40" width="56" height="22" rx="5.6" ry="5.5" style="opacity:.2"/>
 <rect x="4" y="39" width="56" height="22" rx="5.6" ry="5.5" style="fill:#4f4f4f"/>
 <path d="m24.670202 5-1.648996 4.822871-3.872769-3.361395-1.356026 3.957015-2.929688-2.545174-1.442522 4.213463-2.845982-1.389781-0.3125 4.764964-3.9732146-1.941282-0.329241 5.040713-3.9592634-0.78313 1.0100446 4.991078 6.9899554 16.230658h44l6.989956-16.230658 1.010044-4.991078-3.959262 0.78313-0.329242-5.040713-3.973214 1.941282-0.3125-4.764964-2.845984 1.389781-1.44252-4.213463-2.92969 2.545174-1.356026-3.957015-3.872768 3.361395-1.648996-4.822871-3.872766 3.3613948-0.58873 2.1701542v-1.2463908l-2.857142-4.2355234-0.0112 0.01654-0.0112-0.01654-2.857142 4.2355234v1.2463908l-0.58865-2.1701542z" style="fill:#4f4f4f"/>
 <path d="m24.669922 5l-1.648438 4.8222656-3.873046-3.3613281-1.355469 3.9570315-2.929688-2.5449221-1.443359 4.2128911-2.845703-1.388672-0.3125 4.765625-3.9726565-1.941407-0.3300781 5.039063-3.9589844-0.783203 0.2109375 1.041015 3.7480469 0.742188 0.3300781-5.039063 3.9726565 1.941407 0.3125-4.765625 2.845703 1.388672 1.443359-4.2128911 2.929688 2.5449221 1.355469-3.9570315 3.873046 3.3613285 1.648438-4.822266 3.873047 3.3613281 0.58789 2.1699219v-1l-0.58789-2.1699219-3.873047-3.3613281zm14.660156 0l-3.873047 3.3613281-0.58789 2.1699219v1l0.58789-2.1699219 3.873047-3.3613281 1.648438 4.822266 3.873046-3.3613285 1.355469 3.9570315 2.929688-2.5449221 1.443359 4.2128911 2.845703-1.388672 0.3125 4.765625 3.972657-1.941407 0.330078 5.039063 3.748046-0.742188 0.210938-1.041015-3.958984 0.783203-0.330078-5.039063-3.972657 1.941407-0.3125-4.765625-2.845703 1.388672-1.443359-4.2128911-2.929688 2.5449221-1.355469-3.9570315-3.873046 3.3613281-1.648438-4.8222656zm-7.341797 0.0488281l-2.857422 4.2363281v0.9999998l2.857422-4.2363279 0.011719 0.0175781 0.011719-0.0175781 2.857422 4.2363279v-0.9999998l-2.857422-4.2363281-0.011719 0.0175781-0.011719-0.0175781z" style="fill:#ffffff;opacity:.1"/>
 <path d="m38.957032 25.957828a3.0003 3.0003 0 0 0 -2.957032 3.042968v8.269532a3.0003 3.0003 0 0 0 0 0.816406v2.023438a3.0003 3.0003 0 0 0 0 1.058592v7.832032a3.0003 3.0003 0 1 0 6 0v-3.378906l4.753906 5.367188a3.0003 3.0003 0 1 0 4.492188 -3.976564l-7.011718-7.910156 7.035156-8.140624a3.0003 3.0003 0 0 0 -2.25 -4.992188 3.0003 3.0003 0 0 0 -2.289064 1.070312l-4.730468 5.472656v-3.511718a3.0003 3.0003 0 0 0 -3.042968 -3.042968zm-23.957032 0.042968a3.0003 3.0003 0 1 0 0 6h5.652344c-3.485881 5.084214-4.652344 10.06954-4.652344 17a3.0003 3.0003 0 1 0 6 0c0-8.52381 0.923606-11.396552 7.167968-17.925782a3.0003 3.0003 0 0 0 -2.167968 -5.074218z" style="opacity:.2"/>
 <path d="m15 28h12c-6.525512 6.823204-8 11.143228-8 20" style="fill:none;stroke-linecap:round;stroke-linejoin:round;stroke-width:6;stroke:#ffb73c"/>
 <path d="m39.000438 28v20" style="fill:none;stroke-linecap:round;stroke-linejoin:round;stroke-width:6;stroke:#ffb73c"/>
 <path transform="matrix(1.1507118 0 0 1.107273 2.574374 -.4290914)" d="m25.571673 22.062393-10.428328-18.062393 20.856655-6e-7z" style="opacity:.2"/>
 <path d="m49.000438 28-10 11.571424" style="fill:none;stroke-linecap:round;stroke-linejoin:round;stroke-width:6;stroke:#ffb73c"/>
 <path d="m49.000438 48-10-11.285718" style="fill:none;stroke-linecap:round;stroke-linejoin:round;stroke-width:6;stroke:#ffb73c"/>
 <path transform="matrix(1.1507118,0,0,1.107273,2.574374,-1.4290914)" d="m25.571673 22.062393-10.428328-18.062393 20.856655-6e-7z" style="fill:#f43e3e"/>
 <path d="m20 3l0.599609 1h22.800782l0.599609-1h-24z" style="fill:#ffffff;opacity:.1"/>
</svg>

<svg xmlns="http://www.w3.org/2000/svg" width="64" height="64" version="1">
 <rect style="opacity:0.2" width="56" height="22" x="4" y="40" rx="5.6" ry="5.5"/>
 <rect style="fill:#4f4f4f" width="56" height="22" x="4" y="39" rx="5.6" ry="5.5"/>
 <path style="fill:#4f4f4f" d="M 24.670202,5 23.021206,9.822871 19.148437,6.461476 17.792411,10.418491 14.862723,7.873317 13.420201,12.08678 10.574219,10.696999 10.261719,15.461963 6.2885044,13.520681 5.9592634,18.561394 2,17.778264 3.0100446,22.769342 10,39 H 54 L 60.989956,22.769342 62,17.778264 l -3.959262,0.78313 -0.329242,-5.040713 -3.973214,1.941282 -0.3125,-4.764964 -2.845984,1.389781 -1.44252,-4.213463 -2.92969,2.545174 L 44.851562,6.461476 40.978794,9.822871 39.329798,5 35.457032,8.3613948 34.868302,10.531549 V 9.2851582 l -2.857142,-4.2355234 -0.0112,0.01654 -0.0112,-0.01654 -2.857142,4.2355234 v 1.2463908 l -0.58865,-2.1701542 z"/>
 <path style="opacity:0.1;fill:#ffffff" d="M 24.669922 5 L 23.021484 9.8222656 L 19.148438 6.4609375 L 17.792969 10.417969 L 14.863281 7.8730469 L 13.419922 12.085938 L 10.574219 10.697266 L 10.261719 15.462891 L 6.2890625 13.521484 L 5.9589844 18.560547 L 2 17.777344 L 2.2109375 18.818359 L 5.9589844 19.560547 L 6.2890625 14.521484 L 10.261719 16.462891 L 10.574219 11.697266 L 13.419922 13.085938 L 14.863281 8.8730469 L 17.792969 11.417969 L 19.148438 7.4609375 L 23.021484 10.822266 L 24.669922 6 L 28.542969 9.3613281 L 29.130859 11.53125 L 29.130859 10.53125 L 28.542969 8.3613281 L 24.669922 5 z M 39.330078 5 L 35.457031 8.3613281 L 34.869141 10.53125 L 34.869141 11.53125 L 35.457031 9.3613281 L 39.330078 6 L 40.978516 10.822266 L 44.851562 7.4609375 L 46.207031 11.417969 L 49.136719 8.8730469 L 50.580078 13.085938 L 53.425781 11.697266 L 53.738281 16.462891 L 57.710938 14.521484 L 58.041016 19.560547 L 61.789062 18.818359 L 62 17.777344 L 58.041016 18.560547 L 57.710938 13.521484 L 53.738281 15.462891 L 53.425781 10.697266 L 50.580078 12.085938 L 49.136719 7.8730469 L 46.207031 10.417969 L 44.851562 6.4609375 L 40.978516 9.8222656 L 39.330078 5 z M 31.988281 5.0488281 L 29.130859 9.2851562 L 29.130859 10.285156 L 31.988281 6.0488281 L 32 6.0664062 L 32.011719 6.0488281 L 34.869141 10.285156 L 34.869141 9.2851562 L 32.011719 5.0488281 L 32 5.0664062 L 31.988281 5.0488281 z"/>
 <path style="opacity:0.2" d="M 38.957032,25.957828 A 3.0003,3.0003 0 0 0 36,29.000796 v 8.269532 a 3.0003,3.0003 0 0 0 0,0.816406 v 2.023438 a 3.0003,3.0003 0 0 0 0,1.058592 v 7.832032 a 3.0003,3.0003 0 1 0 6,0 V 45.62189 l 4.753906,5.367188 a 3.0003,3.0003 0 1 0 4.492188,-3.976564 l -7.011718,-7.910156 7.035156,-8.140624 a 3.0003,3.0003 0 0 0 -2.25,-4.992188 3.0003,3.0003 0 0 0 -2.289064,1.070312 L 42,32.512514 V 29.000796 A 3.0003,3.0003 0 0 0 38.957032,25.957828 Z M 15,26.000796 a 3.0003,3.0003 0 1 0 0,6 h 5.652344 C 17.166463,37.08501 16,42.070336 16,49.000796 a 3.0003,3.0003 0 1 0 6,0 c 0,-8.52381 0.923606,-11.396552 7.167968,-17.925782 A 3.0003,3.0003 0 0 0 27,26.000796 Z"/>
 <path style="fill:none;stroke:#ffb73c;stroke-width:6;stroke-linecap:round;stroke-linejoin:round" d="m 15,28 h 12 c -6.525512,6.823204 -8,11.143228 -8,20"/>
 <path style="fill:none;stroke:#ffb73c;stroke-width:6;stroke-linecap:round;stroke-linejoin:round" d="M 39.000438,28 V 48"/>
 <path style="opacity:0.2" d="M 25.571673,22.062393 15.143345,4.0000003 36,3.9999997 Z" transform="matrix(1.1507118,0,0,1.107273,2.574374,-0.4290914)"/>
 <path style="fill:none;stroke:#ffb73c;stroke-width:6;stroke-linecap:round;stroke-linejoin:round" d="m 49.000438,28 -10,11.571424"/>
 <path style="fill:none;stroke:#ffb73c;stroke-width:6;stroke-linecap:round;stroke-linejoin:round" d="m 49.000438,48 -10,-11.285718"/>
 <path style="fill:#f43e3e" d="M 25.571673,22.062393 15.143345,4.0000003 36,3.9999997 Z" transform="matrix(1.1507118,0,0,1.107273,2.574374,-1.4290914)"/>
 <path style="opacity:0.1;fill:#ffffff" d="M 20 3 L 20.599609 4 L 43.400391 4 L 44 3 L 20 3 z"/>
</svg>
